X: 69
T: Hunsden House
M:6/8
L:1/8
Q:160
S:Playford
O:Manuscript
A:English
K:C
C2 G E2 A|G E2 D2 C|c2 e c d| A3 G3|C2 G E2 A|G E2 D2 C|c2 e c d| A3 G3|
| g2 f e2 B|c2 d Ade| f2 e d B2|A3 GAB| c2 B A E2| F2 E DAB| cde f2 e d3 c3:|

